X: 0821
T: LEFT HANDED REEL
B: Oliver Ditson "The Boston Collection of Instrumental Music" 1910 p.82 #1
F: http://conquest.imslp.info/files/imglnks/usimg/8/8f/IMSLP175643-PMLP309456-bostoncollection00bost_bw.pdf
%: 2012 John Chambers <jc:trillian.mit.edu>
M: 4/4
L: 1/8
K: D
|:\
dcdA (3Bcd AF | DFAF GEEc |\
dcdA Bd AF | dfeg fdd2 :|
|:\
d>fa>f b>ga>f | dfaf geef |\
dfaf bgaf | gfeg fdd2 ||
dfaf bgaf | dfaf geeg |\
fdec d2AF | DF Ad fdd2 :|

%%sep 1 1 500
%%sep 1 1 500
